X: 37091
T: Silver Vale, The
R: jig
M: 6/8
K: Dmajor
|:Bc|dAF AGF|dAF AGF|A,CE GFE|A,CE GFE|
DFA DGB|Adc d2 e|fed cBA|GFE D:|
|:a2|fdf aba|fdc def|eBB gaf|efd cde|
fef gfg|a^ga ba=g|fed cBA|1 GFE D:|2 GFE D3||

